X:1
T:String Quartet No. 21, First Prussian Quartet (K. 575), Mvmt 4 (Allegretto)
T:Movement IV
T:W. A. Mozart
T:String Quartet No. 21, First Prussian Quartet (K. 575)
C:W. A. Mozart
%%score [ 1 2 3 4 ]
L:1/8
Q:1/2=80
M:2/2
K:D
V:1 treble nm="Violin I"
V:2 treble nm="Violin II"
V:3 alto nm="Viola"
V:4 treble nm="Violoncello"
V:1
"^Allegretto" z8 | z8 | z8 | z8 | z8 | z8 | z8 | z8 |!f! (d4 f2 a2) | (g2 e2 a4) | %10
 f4 (a/g/) z (f/e/) z | (d4 c2) z2 | d4 d2 d2 | (d6 b2) | (afeg) (d2 c2) | d4 d2 d2 | (d6 b2) | %17
 (ad'eb) (d2 fe) | d2 z2 z2!p! (f2 | g2 e2) z2 (c2 | a2 f2) z4 | (E6 G2) | F2 z2 z2!p! (f2 | %23
 g2 e2) z2 (c2 | a2 f2) z4 | (E6 G2 | F2) z2 z4 | z4 z2 (E2 | (3A)ce (3ac'a (3^gbg (3edB | %29
 (3Ace (3ac'a (3^gbg (3edB | A2 a2 z4 | z8 | z4 z2 e2 | (c'4 d'c'ba) | (Ta^g).g.g g2 z2 | z8 | %36
 z4 z2 e2 | (=c'4 d'c'ba) | (Ta^g).g.g g2 z2 | (a4 =c'2 e'2 | =c'2 a2)!mf! =f'4 | (=g4 b2 d'2 | %42
 b2 g2)!mf! e'4 | (=f4 a2 =c'2 | a2 =f2)!mf! d'4 | (^g4 b2 d'2 | b2 ^g2)!mf! d'4 | (^g4 b2 d'2 | %48
 b2 ^g2)!mf! d'4- |!p! (3d'e'd' (3^c'd'c' (3bc'b (3aba | (3^gag (3fgf (3efe (3ded | c2 z2 z4 | z8 | %53
 z2 (3ecB (3(^Ac)F (3fdB | (3(ce)=A (3afe (3^dfB (3b^ge | (3ac'a (3ecA (3FA=d (3fda | %56
 (3(ae)!wedge!c (3(ec)!wedge!A TB4({AB)} | A2 z2!p! (.c'2 .c'2) | (c'd'c'b a^gfe) | (a2 e) z (e'4 | %60
 c') z z2 (e'4 | c') z z2 (.c'2 .c'2) | (c'd')(Tc'b) (Ta^g)(Tfe) | (a2 e) z (e'4 | a) z z2 (e'4 | %65
 a) z z2 (C/A,/) z (D/B,/) z | (E/C/) z z2 (E/C/) z (F/D/) z | (=G/E/) z z2 (G/E/) z (c/G/) z | %68
 (e/c/) z ((g/e/)) z (b/g/) z z2 | z4 z2 (d'/b/) z | (c'/a/) z (b/g/) z (a/f/) z (g/e/) z | %71
 (d4 f2 a2) | (g2 e2 a4) | f4 a/g/ z f/e/ z | (d4 c2) z2 | d4 d2 d2 | (d6 b2) |{b} a4 (ge)(fd) | %78
 (f4 e2) z2 |!f! (d4 f2 a2 | g2 e2) a4 | f4 (a/g/) z (f/e/) z | (d4 c2) z2 | d4 d2 d2 | (d6 b2) | %85
 (af)(eg) (d2 c2) | d4 d2 d2 | (d6 b2) | (ad'eb) (d2 fe) | d2 z2 z2!p! (f2 | g2 e2) z2 (c2 | %91
 a2 f2) z4 | (E6 G2) | F2 z2 z2!p! (f2 | g2 e2) z2 (c2 | a2 f2) z2 (^e2 | g2 e2) z2 (c2 | %97
 a2 =f2) z4 | (E6 G2) | =F2 z2 z2 (=f2 | (3d')=c'_b (3ag^f (3gag (3=fed | =c2 E2 =F2 A2 | %102
 =c2 e2 =f2 a2 | =c'2 z2 z4 | z8 | z4 (_b3!p! a) | (ag) z !wedge!=f (fe) z d | (d=c) z _B z A z G | %108
 =F2 z2 z4 | z4 (d'3!p! =c') | (3_b=c'b (3aba (3gag (3=fgf | (3e=fe (3ded (3=cdc (3_BcB | %112
 (3A=c_B (3A_ed (3cag (3^f=c'_b | a2 z2 z4 | (3z!p! d=c (3=B=fe (3dba (3^gd'=c' | =b2 z2 z4 | %116
 (3z ed (3^c=g^f (3e^c'b (3^ae'd' | c'2 z2 z4 | (B4 d2 f2 | d2 B2) g4 | (A4 c2 e2 | c2 A2) f4- | %122
 (3f!f!^de (3fga (3b=c'b (3agf | (3gag (3fe^d (3efe (3=dcB | (3Ace (3ac'a (3^gbg (3edB | %125
 (3Ace (3ac'a (3^gbg (3edB | .A2 .a2 z4 | z8 | z4 z2 A2 | (f4 gfed) | (Tdc).c.c c2 z2 | z8 | %132
 z4 z2 A,2 | (=F4 GFED) | (TDC).C.C C2 z2 | (d4 =f2 a2 | =f2 d2) _b4 |!p! (=c4 e2 g2 | e2 =c2) a4 | %139
 (_B4 d2 =f2 | d2 _B2) g4 | (^c4 e2 g2 | e2 c2) g4 | (c4 e2 g2 | e2 c2) g4- | %145
!f! (3gag (3fgf (3efe (3ded | (3cdc (3BcB (3ABA (3GAG | F2 (3afd (3(ce)A (3afd | (3(ce)A z2 z4 | %149
 z8 | z8 | z2 (3fdB (3Ace (3abc' | (3d'af (3dAF (3GBe (3geb | (3afd' (3afd Te4({de)} | %154
 d2 z2!p! (.f2 .f2) | (fgfe dcBA) | (d2 A) z (a4 | f) z z2 (a4 | f) z z2 f2 f2 | %159
 (fg)(Tfe) (Tdc)(TBA) | (d2 A) z (a4 | d) z z2 (a4 | d) z z2 (F/D/) z (G/E/) z | %163
 (A/F/) z z2 (A/F/) z (B/G/) z | (=c/A/) z z2 (c/A/) z (f/c/) z | %165
 (a/f/) z (=c'/a/) z (e'/c'/) z z2 | z8 | (b4 ^d'2 f'2 | ^d'2 b2) g'4 | (a4 c'2 e'2 | %170
 c'2 a2) =f'4 | (=f'4 e'2 d'2 | a2) z2 z4 | z2 (^ga bc'd'b) | (e'3 c' a2) z2 | z2 (^GA BcdB) | %176
 (e3 c A2) z2 | z2 (^G,A, B,CDB,) | .A,2 .A,2 z2 (a2 | ^g2) !wedge!g2 z2 (g2 | %180
 =g2) !wedge!g2 z2 (c2 | d2) (Tfe/f/) a2 z2 | z2 (TcB/c/) e2 z2 | z2 (TAG/A/) B2 z2 | %184
 z2 (TFE/F/) E2 z2 | z2 (TFE/F/) A2 z2 | z2 (Tdc/d/) B2 z2 | z2 (TFE/F/) E2 z2 | %188
 z2 (TDC/D/) C2 z2 |!f! (d4 f2 a2 | g2 e2) a4 | f4 a/g/ z f/e/ z | (d4 c2) z2 | d4 d2 d2 | %194
 (d6 b2) | (af)(eg) (d2 c2) | d4 d2 d2 | (d6 b2) | (Tad')(eb) (d2 fe) |!p! (d4 f2 a2 | %200
 g2 e2) (a3 g) | (gf) z b (ba) (a^g) | (a2 =g4) f2- | f(ege) (Ted)(Tdc) | d2 z2 z4 | z8 | z8 | z8 | %208
 z2!p! (B2 b2) !wedge!b2 | z2 (B2 b2) !wedge!b2 | z2 (A2 a2) !wedge!a2 | %211
 z2!f! (A2 c'2) !wedge!c'2 |!p! (d'4 f'2 a'2) | (b4 d'2 f'2) | (^g4 b2 d'2) | (=g4 _b2 d'2) | %216
 z (fg^g af=g^g) | !wedge!a2 (af) z2 (=ge) | z8 | z8 |"_cresc." (b8 | _b8) | (ad'c'=c' =b_bag) | %223
!f! (3fag (3fed (3cBA (3GFE | D2 z2 z4 | (3EGA (3Bcd (3efg (3abc' | d'2 z2 z4 | %227
!p! (3gfe (3dcB (3AGF (3EDC | D2 z2!f! [Aec']2 z2 | [Ddd']2 z2 z4 |] %230
V:2
 z8 | z8 | z8 | z8 | z8 | z8 | z8 | z8 |!f! (D4 F2 A2) | (G2 E2 A4) | F4 (A/G/) z (F/E/) z | %11
 (D4 C2) z2 | .D2 (D2 E2 F2 | G2 A2 B2 c2) | (dA)(GB) (F2 E2) | D2 (d2 c2 =c2) | (B2 A2 ^G2 =G2) | %17
 F2 (GA) (F2 AG) |!p! .F.A.F.A .F.A.F.A | .E.A.G.A .E.A.G.A | .F.A.F.A .F.A.F.A | (C8 | %22
 D)!p!AFA FAFA | EAGA EAGA | FAFA FAFA | (C8 | .D2) .G,2 .A,2 (d2 | (3b)ag (3fe^d (3efe (3=d^cB | %28
 c C2 (C D) D2 (D | C) C2 (C D) D2 (D | C2) c2 z4 |!p! (A4 c2 e2) | (d2 B2 e2) z2 | z4 z2 E2 | %34
 (d4 edcB) | (A4 =c2 e2) | (d2 B2 e4) | z4 z2 E2 | (d4 ed=cB) | (TBA).A.A A4 | (=c2 e2 c2 A2) | %41
!mf! =f4 (=G4 | B2 d2 B2 G2) |!mf! e4 =F4 | (A2 =c2 A2 =F2) |!mf! d4 ^G4 | (B2 d2 B2 ^G2) | %47
!mf! d4 ^G4 | (B2 d2 B2 ^G2-) |!f! G2 (A2 B2) (e2 | d2 ^c2) (TB3 A/B/) | c2 (3ecA (3(^GB)E (3ecA | %52
 (3(^GB)E e4 e2- | e2 E2 (c2 F2) | (e2 A2 g2 ^g2) | .a2 z2 .f2 z2 | ccAA AA^GG |!p! (AECE CECE) | %58
 (DEDE DEDE) | (CECE) (B,E^GE) | (CEAE B,E^GE) | (CEAE CECE) | (DEDE DEDE) | (CECE B,E^GE) | %64
 (CEAE DEBE) | .C2 .C2 z4 | z2 .E2 z4 | z2 .=G2 z4 | z4 z2 (a/f/) z | %69
 (=g/e/) z (f/d/) z (e/c/) z (d/B/) z | (c/A/) z (B/G/) z (A/F/) z (G/E/) z | z .D.F.A .d.A.f.d | %72
 edcB cABc | dDdc BEFG | (AA,A^G AB).=G.E | .D(de)(d c).d.=c.d | .B.d.A.d ^Gd=Gd | FAdF EcDd | %78
 .A,(A^GA) .A,(=GFE) |!f! (D4 F2 A2 | G2 E2) A4 | F4 (A/G/) z (F/E/) z | (D4 C2) z2 | %83
 .D2 (D2 E2 F2) | (G2 A2 B2 c2) | (d2 BG FAGE) | !wedge!D2 (d2 c2 =c2) | (B2 A2 ^G2 =G2) | %88
 (FA)(BG) (F2 AG) |!p! .F.A.F.A .F.A.F.A | EAGA EAGA | FAFA FAFA | (C8 | D)!p!.A.F.A .F.A.F.A | %94
 EAGA EAGA | FAFA =FAFA | EAGA EAGA | =FAFA FAFA | G,6 (=C2 | (3=c)_BA (3G=FE (3FGF (3_EDC | %100
 D2 d4 G2 | G2 G,2 A,2 =F2 | G2 G2 A2 =f2 | e2 z2 z4 | z8 | z4 (e2!p! =f2) | (d2 =c2 _B2 A2) | %107
 (G2 =F2 TE3 D/E/) | =F2 z2 z4 | z4 (e2!p! =f2) | (f2 e2 d2 =c2 | _B2 A2 G4) | (G2 ^F2) z4 | %113
 (3z!p! =cd (3_eA_B (3=c^FG (3AD=C | =B,2 z2 z4 | (3z de (3=f=Bc (3d^GA (3=BED | ^C2 z2 z4 | %117
 (3z e^f (3=g^cd (3e^AB (3cFE | D2 z2 D4 | (F2 =A2 G2 E2) | ^c4 C4 | (D2 G2 F2 D2) | %122
!f! (B,4 ^D2 F2 | E2 B,2)!mf! B4 | c C2 (C D) D2 (D | C) C2 (C D) D2 (D | C2) .c2 z4 | %127
!p! (d4 f2 a2 | g2 e2) a4 | z4 z2!p! A,2 | (G4 AGFE) | (D4 =F2 A2 | G2 E2) A4 | z4 z2!p! A2 | %134
 (g4 ag=fe) | d2 z2 D4 | (=F2 A2 F2 D2) | _B4 =C4 | (E2 G2 E2 =C2) | _A4 _B,4 | (D2 =F2 D2 _B,2) | %141
 E4 e4 | (^c2 A2 c2 e2) | A4 e4 | (c2 A2 c2 e2) |!f! (A2 A4 T^GF/G/) | %146
 !wedge!A2 (E2 F2) (TCB,/C/) | (D2 F2 G2) (F2 | G2) (3afd (3(ce)A (3afd | (3(ce)A z2 z4 | %150
 z2 (3dBA (3(^GB)E (3ecB | (3AcF f2 e4 | f2 z2 e2 z2 | ffdd ddcc |!p! (dAFA FAFA) | (GAGA GAGA) | %156
 (FAFA EGAG) | (DFAF EGAG) | (DFAF FAFA) | (GAFA FAFA) | (FAFA EGcG) | (FAdA EGcG) | .F2 .F2 z4 | %163
 z2 .A2 z4 | z2 .=c2 z4 | z4 z2 (d'/b/) z | (=c'/a/) z (b/g/) z (a/f/) z (g/e/) z | %167
 (f/^d/) z (e/=c/) z (^d/B/) z (=c/A/) z | z8 | (e/^c/) z (=d/B/) z (c/A/) z (B/G/) z | z8 | %171
 (_A/B/) z (=A/=c/) z (B/d/) z z2 |!p! (.[^CE].[CE].[CE].[CE] !/!.[CE]4) | !/![DE]4 !/![DE]4 | %174
 !/![CE]4 !/![CE]4 | !/![DE]4 !/![DE]4 | !/![CE]4 !/![CE]4 | !/![DE]4 !/![DE]4 | %178
 .[CE]2 .[CE]2 z2 (c2 | d2) !wedge!d2 z2 (d2 | c2) !wedge!e2 z2 (G2 | F2) z2 z2 (TFE/F/ | %182
 C2) z2 z2 (TED/E/ | D2) z2 z2 (TGF/G/ | F2) z2 z2 (TA^G/A/ | D2) z2 z2 (TFE/F/ | %186
 =G2) z2 z2 (TGF/G/ | F2) z2 z2 (TA,G,/A,/ | D2) z2 z4 |!f! [A,F] [A,F]2 [A,F]2 [A,F]2 ([A,F] | %190
 [CE]) [CE]2 [CE]2 [CE]2 [CE] | D d2 (d B) B2 B | (F4 E2) z2 | [A,F] [A,F]2 [A,F]2 [A,F]2 [A,F] | %194
 [B,G] [B,G]2 [B,G]2 [B,G]2 [B,G] | !wedge!A z !wedge!B z (F2 E2) | %196
 [A,F] [A,F]2 [A,F]2 [A,F]2 (([A,F] | [B,G])) [B,G]2 [B,G]2 [B,G]2 [B,G] | %198
 !wedge!A z !wedge!B z (A2 G2) | F2 z2 z4 |!p! (A4 c2 e2 | d2 B2) (e3 d) | (cA_B=B =c^cd=B) | %203
 G2 E2 A2 A,2 | D2 z2 z4 | z8 | z8 | z8 |!p! .[B,D]2 .[B,D]2 z2 [B,D]2- | %209
 [B,D]2 .[B,D]2 z2 [B,D-]2 | .[A,D]2 .[A,D]2 z2 (([A,D]2 | [CE]2)) .[CE]2 z2!p! .c2 | (d4 f2 a2) | %213
 (B4 d2 f2) | (^G4 B2 d2) | (=G4 _B2 d2) | z (de^e fd=e^e) | !wedge!f2 (fd) z2 (ec) | z8 | z8 | %220
"_cresc." (B8 | _B8) | (Adc=c =B_BAG) |!f! F2 z2 [A,Ec]2 z2 | (d4 f2 a2 | g2 e2)!mf! (a3 g) | %226
 f2 z2 z2!p! (F2 | E2 G2) z2 A,2 | A,2 z2!f! [Ag]2 z2 | [DAf]2 z2 z4 |] %230
V:3
 z2!p! (D,2 D2 F2 | E2 D2 C2 A,2) | (D2 C2 B,2 G,2) | .A,2 .A2 (A,2 G,2) | .F,2 (D2 C2 =C2 | %5
 B,2 A,2 ^G,2 =G,2) | .F,2 .F2 .^C2 .D2 | .A,2 .A2 .A,.G,.F,.E, |!f! (D,2 F,2 A,2 D2) | %9
 B,4 (E,2 C2) | (A,4 D2 B,2) | (F,4 E,2) z2 | .F,2 (F,2 G,2 A,2 | B,2 C2 D2 E2 | %14
 F2) (B,2 A,2 G,2) | F,2 (F2 G2 A2 | G2 F2 =F2 E2) | ^F2 (B,2 A,2 C2) |!p! .D.F.D.F .D.F.D.F | %19
 .C.G.E.G .C.G.E.G | .D.F.D.F .D.F.D.F | A,8- | A,!p!FDF DFDF | CGEG CGEG | DFDF DFDF | A,6 (E2 | %26
 (3A)GF (3EDC (3DED (3=CB,A, | B,4 B4 | A E2 E2 E2 E- | E E2 E2 E2 E- | E2 E2 z4 | %31
!p! (CECE A,EA,E) | (B,EB,E DEDE) | .C.E.A,.E .C.E.A,.E | B,EDE B,EDE | (=CECE A,EA,E) | %36
 (B,EB,E DEDE) | .=C.E.A,.E .C.E.A,.E | .B,.E.D.E .B,.E.D.E | .=C.E.e.d .=c.B.A.c | .e2 .E2 z4 | %41
 z .D.d.=c .B.A.G.B | .d2 .D2 z4 | z .=C.=c.B .A.G.=F.A | .c2 .C2 z4 | (B,4 ^G,2 E,2 | %46
 ^G,2 B,2)!mf! E,4 | (B,4 ^G,2 E,2 | ^G,2 B,2 E,4) | (B,2 ^C2 D2 c2 | B2 A2) T^G3 (F/G/) | %51
 A2 E4 E2- | E2 (3ecA (3(^GB)E (3ecA | (3(^GB)E A2 (F>^A B2) | (=A>c) d2 (B>^d) e2- | %55
 e2 z2 .A2 z2 | AACC DDDD | C2 z2 z4 | z8 | z4!p! (E,3 F,/^G,/) | A, z C z (E,3 F,/^G,/) | %61
 A, z C z (A,4 | ^G,4 B,4) | A,2 z2 (E,3 F,/^G,/) | A, z C z (E,3 F,/^G,/) | .A,2 .A,2 z4 | %66
 z2 .C2 z4 | z2 .[CE]2 z4 | z4 z2 (F/A/) z | (E/=G/) z (D/F/) z (C/E/) z (B,/D/) z | %70
 (A,/C/) z (G,/B,/) z (F,/A,/) z (E,/G,/) z | D,2 z2 z4 | z8 | z8 | z8 | z8 | z8 | z8 | z8 | %79
 z!f! .D,.F,.A, .D.E.F.^D | EFGE CEA,C | DFAd B,BG,G | (A,^G,A,G, A,)(A=GE) | .D2 (F,2 G,2 A,2) | %84
 (B,2 C2 D2 E2) | (FAGE) (DFEC) | !wedge!D2 (F2 G2 A2 | G2 F2 =F2 E2) | (^FD)(B,E) (A,2 C2) | %89
!p! .D.F.D.F .D.F.D.F | CGEG CGEG | DFDF DFDF | A,8- | A,!p!.F.D.F .D.F.D.F | CGEG CGEG | %95
 DFDF D=FDF | CGEG CGEG | D=FDF D2 (D2 | (3_B)AG (3=FED (3=CDC (3_B,A,G, | A,2 (T_B,A,/B,/ C2) z2 | %100
 ^A,2 G4 (3(DE=F) | E2 =C2 C2 C2 | =C2 =c2 c2 c2 | =c2 z2 z4 | z8 | z4 (G2!p! =F2) | %106
 (_B2 A2 G2 =F2) | (E2 D2 =C2 _B,2) | A,2 z2 z4 | z4 (_B2!p! A2) | (d2 =c2 _B2 A2 | G2 =F2 E4) | %112
 (A,2 D2) z4 |!p! (A,4 ^F,2 D,2 | ^G,2 =B,2) E,4 | (B,4 ^G,2 E,2) | (^A,2 ^C2 F,4) | C4 ^A,2 F,2- | %118
 (3F,dc (3BAG (3FGF (3EDC | B,2 (T^d3/2c/4d/4) e2 z2 | (3z cB (3AGF (3EFE (3DCB, | %121
 A,2 (Tc3/2B/4c/4) d2 z2 |!f! (G,4 B,2 ^D2) | B,2 G,2!mf! E4- | E E2 E2 E2 E- | E E2 E2 E2 E- | %126
 E2 .E2 z4 |!p! (FAFA DADA) | (EAEA GAGA) | .F.A.D.A .F.A.D.A | EACE A,CG,A, | %131
 (=F,A,F,A,) (D,A,D,A,) | (E,A,E,A,) (G,A,G,A,) | .=F,.A,.D,.A, .F,.A,.D,.A, | E,A,EA, GEAG | %135
 .=F.A,.A.G .F.E.D.F | A2 A,2 z4 | z .G,.G.=F .E.D.=C.E | G2 G,2 z4 | z .=F,.=F.E .D.C.^A,.D | %140
 .=F2 .=F,2 z4 | (G4 E2 ^C2 | E2 G2) C4 | (G4 E2 C2 | E2 G2) C4- |!f! C2 (TDC/D/) E2 E2- | %146
 E2 (TCB,/C/) C2 A,2- | A,2 z2 z4 | z2 (F2 G2 F2 | G2) (3.A.F.E (3(^DF).B, (3BGE | %150
 (3(FA)=D G2 (F>^G) A2 | F>^A B2 c2 (3(cB=A) | d2 z2 B2 z2 | ddFF GGGG | F2 z2 z4 | z8 | %156
 z4!p! (A,3 B,/C/) | !wedge!D z !wedge!F z (A,3 B,/C/) | !wedge!D z !wedge!F z (D4 | C4 E4) | %160
 D2 z2 (A,3 B,/C/) | !wedge!D z !wedge!F z (A,3 B,/C/) | .D2 .D2 z4 | z2 .F2 z4 | z2 .[FA]2 z4 | %165
 z4 z2 (B/d/) z | (A/=c/) z (G/B/) z (F/A/) z (E/G/) z | %167
 (^D/F/) z (=C/E/) z (B,/^D/) z (A,/=C/) z | (B/G/) z (A/F/) z (G/E/) z (F/=D/) z | %169
 (^C/E/) z (B,/D/) z (A,/C/) z (G,/B,/) z | (A/F/) z (G/E/) z (=F/D/) z (E/C/) z | %171
 (D/B,/) z (=C/A,/) z (B,/^G,/) z z2 | (.A,.A,.A,.A, !/!.A,4) | !/!B,4 !/!B,4 | !/!A,4 !/!A,4 | %175
 !/!B,4 !/!B,4 | !/!A,4 !/!A,4 | !/!^G,4 !/!G,4 | A,2 A,2 z2 (A2 | B2) !wedge!B2 z2 (B2 | %180
 ^A2) !wedge!A2 z2 =A2- | A2 z2 D,2 z2 | E,2 z2 C,2 z2 | D,2 z2 G,2 z2 | A,2 z2 G,2 z2 | %185
 F,2 z2 =C2 z2 | B,2 z2 G,2 z2 | (D,4 C,2 D,2) | A,2 A2 .A,.G,.F,.E, |!f! D,2 z2 (3DFA (3(dcd) | %190
 A2 z2 (3A,CE (3(A^GA) | B,2 z2 (3=G,B,E (3(=GFG) | A,2 z2 (3A,CE (3(AGE) | D4- (3DFA (3(dcd) | %194
 D4- (3DGB (3(dcd) | (3(DFA) (3(GE).B A,4- | A,2 D2- (3DFA (3(dcd) | D4- (3DGB (3(dcd) | %198
 (3(DFA) (3(GB).E (F2 C2) | z8 | z8 | z8 | z8 | z8 | z8 | (A,4 C2 E2 | D2 B,2) (E3 D) | %207
 (CA,_B,=B, =C^CD=B,) | .G,2 .G,2 z2 G,2- | G,2 ^G,2 z2 (G,2 | A,2) .A,2 z2!f! A,2- | A,2 .A,2 z4 | %212
 z8 | z8 |!p! [D,D]8- | [D,D]8- | [D,D]2 z2 [F,D]2 z2 | [DF]2 z2 [A,E]2 z2 | (D4 F2 A2) | %219
 (B,4 D2 F2) | (^G,4"_cresc." B,2 D2) | (=G,4 _B,2 C2) | [D,D]8 |!f! [D,D]2 z2 [A,A]2 z2 | %224
 (FAFA) (DAFD) | (CEGE) (CA,G,E,) | (D,4 F,2 A,2 | G,2 E,2) (A,3 G,) | F,2 z2!f! A2 z2 | %229
 D2 z2 z4 |] %230
V:4
!p! (d4 f2 a2 | g2 e2 a4) | f4 (a/g/) z (f/e/) z | (d4 c2) z2 | d4 d2 d2 | (d6 b2) | a4 (ge)(fd) | %7
 (f4 e2) z2 |[K:bass] z2!f! .D,,2 (D,2 F,2 | E,2 D,2 C,2 A,,2) | (D,2 C,2 B,,2 G,,2) | %11
 .A,,2 .A,2 (A,,2 G,,2) | .F,,2 (D,2 ^C,2 =C,2) | B,,2 A,,2 ^G,,2 =G,,2 | .F,,2 .G,,2 A,,4 | %15
 D,,2 (D,2 E,2 F,2) | (G,2 A,2 B,2 C2) | .D2 .G,2 .A,2 .A,,2 |!p! D,2 D,2 D,2 D,2 | %19
 D,2 D,2 D,2 D,2 | D,6 (D2 | (3G)FE (3DCB, (3A,B,A, (3G,F,E, |!p! D,2 D,2 D,2 D,2 | %23
 D,2 D,2 D,2 D,2 | D,6 (D2 | (3G)FE (3DCB, (3A,B,A, (3G,F,E, | D,2 (TE,3/2D,/4E,/4 F,2) F,,2 | %27
 G,,2 (G,4 ^G,2) | A,2 A,2 A,2 A,2 | A,2 A,2 A,2 A,2 | .A,2 .A,,2 z4 | z8 | z2!p! (D2 B,2 ^G,2) | %33
 .A,2 .A,,2 z2 .C,2 | .E,2 .E,,2 z4 | z8 | z2 (D2 B,2 ^G,2) | .A,2 .A,,2 z2 .=C,2 | .E,2 .E,,2 z4 | %39
 A,,2 z2 z4 | z .A,,.=C.B, .A,.G,.=F,.A, | .B,2 .B,,2 z4 | z G,,B,A, G,=F,E,G, | .A,2 .A,,2 z4 | %44
 z =F,,A,G, =F,E,D,F, | E,2 z2 (B,,4 | ^G,,2 E,,2 G,,2 B,,2) |!mf! E,,4 (B,,4 | %48
 ^G,,2 E,,2 G,,2 B,,2) | E,,8 | E,8 | (A,2 C2 D2 C2 | D2 C2 D2 C2) | (D2 C2 E2 D2 | =G2 F2 A2 D2) | %55
 .C2 z2 .D2 z2 | E2 E,2 E,2 E,2 |!p! A,,2 A,,2 A,,2 A,,2 | A,,2 A,,2 A,,2 A,,2 | A,,8- | A,,8 | %61
 A,,2 A,,2 A,,2 A,,2 | A,,2 A,,2 A,,2 A,,2 | A,,8- | A,,8- | A,,2 .A,,2 z4 | z2 .A,,2 z4 | %67
 z2 .A,,2 z4 | z8 | z8 | z8 | z8 | z8 | z8 | z8 | z8 | z8 | z8 | z8 | %79
 z!f! .D,,.F,,.A,, .D,.E,.F,.^D, | E,F,G,E, C,E,A,,C, | D,F,A,D B,,B,G,,G, | %82
 (A,,^G,,A,,G,, A,,)(A,=G,E,) | .D,(D,E,D,) .C,.D,.=C,.D, | .B,,.D,.A,,.D, .^G,,.D,.=G,,.D, | %85
 F,,D,G,,E, A,,F,A,,G, | .F,(D,C,D,) .E,.D,.F,.D, | G,D,A,D, B,D,CD, | (DF,)(G,E,) (A,^G,A,)A,, | %89
!p! D,2 D,2 D,2 D,2 | D,2 D,2 D,2 D,2 | D,6 (D2 | (3G)FE (3DCB, (3A,B,A, (3G,F,E, | %93
!p! D,2 D,2 D,2 D,2 | D,2 D,2 D,2 D,2 | D,2 D,2 D,2 D,2 | D,2 D,2 D,2 D,2 | D,2 D,2 D,2 D,2 | %98
 [=C,,=C,]6 (E,2 | =F,2) (TG,F,/G,/ A,2) A,,2 | ^A,,2 (^A,4 B,2) | %101
 (3=CDC (3_B,A,G, (3A,CB, (3A,G,=F, | (3E,D,=C, (3_B,,A,,G,, (3A,,C,B,, (3A,,G,,=F,, | %103
 =C,,2 z2 z4 |!p! (=F,,4 A,,2 =C,2 | _B,,2 G,,2) =C,4- | C,8- | C,8 | (=F,,4 A,,2 =C,2 | %109
 _B,,2 G,,2) =C,4- | C,8- | C,8 |!p! (D,,4 ^F,,2 A,,2 | ^F,,2 D,,2) A,,4 | (E,,4 ^G,,2 B,,2 | %115
 ^G,,2 E,,2) B,,4 | (^F,,4 ^A,,2 ^C,2 | ^A,,2 F,,2) C,4 | B,,2 z2 z4 | %119
 (3z (=CB,) (3.A,.G,.F, (3E,F,E, (3D,^C,B,, | A,,2 z2 z4 | %121
 (3z (B,A,) (3.G,.F,.E, (3D,E,D, (3=C,B,,A,, |!f! G,,8- | G,,6 ^G,,2 | A,,2 A,2 A,2 A,2 | %125
 A,2 A,2 A,2 A,2 | .A,2 .A,,2 z4 | z8 | z2!p! (G2 E2 C2) | .D2 .D,2 z2 .F,2 | .A,2 .A,,2 z4 | z8 | %132
 z2 (G,2 E,2 C,2) | .D,2 .D,,2 z2 .=F,,2 | .A,,2 .A,2 z4 | D,2 z2 z4 | %136
 z .D,,.=F,.E, .D,.C,.^A,,.D, | .E,2 .E,,2 z4 | z .=C,,.E,.D, .=C,._B,,.A,,.C, | .D,2 .D,,2 z4 | %140
 z ._B,,.D,.=C, .B,,.A,,.G,,.B,, | .A,,2 .A,2 (A,,4 | ^C,2 E,2 C,2 A,,2) | (E,4 (A,,4) | %144
 C,2 E,2 C,2 A,,2) |!f! .E,2 .D,2 .C,2 .B,,2 | .A,,2 .G,,2 .F,,2 .E,,2 | D,,2 z2 z4 | z8 | %149
 z2 (F,2 A,2 G,2 | =C2 B,2 D2 ^C2) | E2 D2 G4 | F2 z2 G2 z2 | A2 A,2 A,2 A,2 |!p! D,2 D,2 D,2 D,2 | %155
 D,2 D,2 D,2 D,2 | D,8- | D,8- | D,2 D,,2 D,,2 D,,2 | D,,2 D,,2 D,,2 D,,2 | D,,8- | D,,8- | %162
 D,,2 D,2 z4 | z2 .D2 z4 | z2 .D2 z4 | z8 | z8 | z8 | (G,/B,/) z (F,/A,/) z (E,/G,/) z (D,/F,/) z | %169
 C,2 z2 z4 | (F,/A,/) z (E,/G,/) z (D,/=F,/) z (C,/E,/) z | %171
 (B,,/D,/) z (A,,/=C,/) z (^G,,/B,,/) z z2 | (A,,4 ^C,2 E,2 | D,2 B,,2) E,4 | (A,,4 C,2 E,2 | %175
 D,2 B,,2) E,4 | (A,,4 C,2 E,2 | D,2 B,,2) E,4 | (A,4 C2 E2 | D2 B,2) =F4 | (E2 C2 G3 E) | %181
[K:treble] (d4 ^f2 a2 | g2 e2) a4 | f4 (a/g/) z (f/e/) z | (d4 c2) z2 | d4 d2 d2 | (d6 b2) | %187
{b} a4 (ge)(fd) | (f4 e2) z2 |[K:bass]!f! (3D,F,A, (3(DCD) D,2 z2 | (3A,,C,E, (3(A,^G,A,) A,,2 z2 | %191
 (3B,,D,F, (3(B,^A,B,) G,2 z2 | (3A,,D,F, (3(A,^G,A,) A,,2 z2 | (3D,F,A, (3(DCD) =C,4 | %194
 (3B,,D,G, (3(B,^A,B,) G,,4 | !wedge!F,, z !wedge!G,, z (3(A,,D,F,) (3(A,^G,A,) | %196
 (3D,F,A, (3(DCD) =C,4 | (3B,,D,G, (3(B,^A,B,) G,,4 | %198
 !wedge!F,, z !wedge!G,, z (3(A,,D,F,) (3(A,^G,A,) | z8 | z8 | z8 | z8 | z8 |[K:treble] (d4 f2 a2 | %205
 g2 e2) (a3 g) | (gf) z b (ba)(a^g) | (a2 =g4 f2) |!p! .e2 .e2 z2 (e2 | =f2) .f2 z2 (f2 | %210
 ^f2) .f2 z2!f! (f2 | g2) .g2 z4 | z8 | z8 |[K:bass]!p! (B,,8 | _B,,8 | A,,2) z2 A,,2 z2 | %217
 A,,2 z2 A,,2 z2 | (D,4 F,2 A,2) | (B,,4 D,2 F,2) | (^G,,4"_cresc." B,,2 D,2) | (G,,4 _B,,2 C,2) | %222
 F,,4 G,,2 A,,=B,, |!f! A,,2 z2 A,,2 z2 | D,,D,D,D, D,D,D,D, | D,D,D,D, D,D,D,D, | %226
!p! D,D,,D,,D,, D,,D,,D,,D,, | D,,D,,D,,D,, D,,D,,D,,D,, | D,,2 z2!f! A,2 z2 | D,2 z2 z4 |] %230

